Papirus/24x24/panel/ubuntuone-client-error.svg

<?xml version="1.0" encoding="UTF-8" standalone="no"?>
<svg xmlns:dc="http://purl.org/dc/elements/1.1/" xmlns:cc="http://creativecommons.org/ns#" xmlns:rdf="http://www.w3.org/1999/02/22-rdf-syntax-ns#" xmlns:svg="http://www.w3.org/2000/svg" xmlns="http://www.w3.org/2000/svg" height="24" width="24" version="1.1" id="svg2" viewBox="0 0 24 24">
    <metadata id="metadata10">
        <rdf:RDF>
            <cc:Work rdf:about="">
                <dc:format>
                    image/svg+xml
                </dc:format>
                <dc:type rdf:resource="http://purl.org/dc/dcmitype/StillImage"/>
                <dc:title/>
            </cc:Work>
        </rdf:RDF>
    </metadata>
    <path id="path4" style="fill:#5294e2;fill-opacity:1" d="M 10.030193,6.0013827 C 9.6378238,6.0123814 9.2374474,6.085373 8.8410748,6.2203575 7.1484838,6.7952912 5.8722842,8.4620991 5.4939285,10.532861 c -1.1110444,0.267969 -2.048926,1.247856 -2.3772346,2.655693 -0.4654375,1.99977 0.5034733,4.062532 2.1580286,4.624468 0.027025,0.008 0.035033,0.024 0.063059,0.031 C 5.5659963,17.943007 5.8312456,18 6.0884874,18 l 11.9802616,0 c 0.429403,0 0.821772,-0.146983 1.157087,-0.405953 1.341261,-0.773911 2.07395,-2.618698 1.657558,-4.405493 -0.307288,-1.320847 -1.168098,-2.289736 -2.190058,-2.624697 -0.009,-0.044 0.01001,-0.08099 0,-0.124986 C 18.227898,8.4391018 16.500274,7.283235 14.845719,7.8451702 14.528421,7.9531578 14.236146,8.1001408 13.969896,8.3141162 13.058039,6.8332868 11.575645,5.9603874 10.028191,6.0013827 Z m -1.0319704,3.9995393 0.7507056,0 c 0.00801,0 0.023022,0 0.031029,0 0.1911797,0.008 0.3673448,0.111987 0.5004708,0.249971 l 1.720617,1.687805 1.751647,-1.687805 c 0.199187,-0.17198 0.3193,-0.242972 0.50047,-0.249971 l 0.750706,0 0,0.749913 c 0,0.214976 -0.02603,0.412953 -0.188177,0.562936 l -1.720618,1.718801 1.689589,1.687806 c 0.141132,0.141984 0.219206,0.328962 0.219206,0.530939 l 0,0.749913 -0.750706,0 c -0.199187,0 -0.390367,-0.07799 -0.5315,-0.218974 L 12.001045,14.09445 10.280428,15.782256 C 10.139295,15.924239 9.9471145,16.00123 9.7489282,16.00123 l -0.7507056,0 0,-0.749913 c 0,-0.198977 0.078073,-0.389955 0.219206,-0.530939 L 10.938046,13.032572 9.2174286,11.313771 C 9.0602809,11.171787 8.9822075,10.960811 8.9982226,10.750835 l 0,-0.749913 z"/>
</svg>

<?xml version="1.0" encoding="UTF-8" standalone="no"?>
<svg id="svg2" xmlns:rdf="http://www.w3.org/1999/02/22-rdf-syntax-ns#" xmlns="http://www.w3.org/2000/svg" height="24" viewBox="0 0 24 24" width="24" version="1.1" xmlns:cc="http://creativecommons.org/ns#" xmlns:dc="http://purl.org/dc/elements/1.1/">
 <metadata id="metadata10">
  <rdf:RDF>
   <cc:Work rdf:about="">
    <dc:format>image/svg+xml</dc:format>
    <dc:type rdf:resource="http://purl.org/dc/dcmitype/StillImage"/>
    <dc:title/>
   </cc:Work>
  </rdf:RDF>
 </metadata>
 <path id="path4" fill="#5294e2" d="m10.03 6.0014c-0.3922 0.011-0.7926 0.084-1.1889 0.219-1.6926 0.5749-2.9688 2.2417-3.3472 4.3126-1.111 0.26797-2.0489 1.2479-2.3772 2.6557-0.46544 1.9998 0.50347 4.0625 2.158 4.6245 0.027025 0.008 0.035033 0.024 0.063059 0.031 0.2282 0.099 0.4934 0.156 0.7507 0.156h11.98c0.4294 0 0.82177-0.14698 1.1571-0.40595 1.3413-0.77391 2.074-2.6187 1.6576-4.4055-0.30729-1.3208-1.1681-2.2897-2.1901-2.6247-0.009-0.044 0.01001-0.08099 0-0.12499-0.465-1.9999-2.193-3.1558-3.847-2.5938-0.318 0.108-0.61 0.2549-0.876 0.4689-0.912-1.4808-2.394-2.3537-3.942-2.3127zm-1.032 3.9995h0.75071 0.031029c0.19118 0.008 0.36734 0.11199 0.50047 0.24997l1.7206 1.6878 1.7516-1.6878c0.19919-0.17198 0.3193-0.24297 0.50047-0.24997h0.75071v0.74991c0 0.21498-0.02603 0.41295-0.18818 0.56294l-1.7206 1.7188 1.6896 1.6878c0.14113 0.14198 0.21921 0.32896 0.21921 0.53094v0.74991h-0.75071c-0.19919 0-0.39037-0.07799-0.5315-0.21897l-1.719-1.689-1.721 1.688c-0.141 0.142-0.3329 0.219-0.5311 0.219h-0.75071v-0.74991c0-0.19898 0.078073-0.38996 0.21921-0.53094l1.7206-1.687-1.7206-1.719c-0.1571-0.142-0.2352-0.353-0.2192-0.563v-0.74991z"/>
</svg>
